!!!COM: Scarlatti, Domenico
!!!CDT: 1685///-1757///
!!!OTL: Sonata in F Minor, K.238, L.27
!!!SCT: K. 238
!!!SCT: L. 027
!!!OMD: Andante
**kern	**kern	**dynam
*staff2	*staff1	*staff1/2
*Icemba	*Icemba	*Icemba
*>[A,A,B,B]	*>[A,A,B,B]	*>[A,A,B,B]
*>norep[A,B]	*>norep[A,B]	*>norep[A,B]
*>A	*>A	*>A
*clefF4	*clefG2	*clefG2
*k[b-e-a-d-]	*k[b-e-a-d-]	*k[b-e-a-d-]
*f:	*f:	*f:
*met(c)	*met(c)	*met(c)
*M4/4	*M4/4	*M4/4
*MM92	*MM92	*MM92
=1-	=1-	=1-
4FF/	8r	.
.	(8cc\L	p
4r	8.ff\	.
.	16gg\Jk	.
2r	8.aa-\L)	.
.	(16aa-\k	.
.	8.gg\	.
.	16ff\Jk	.
*clefG2	*	*
=2	=2	=2
8r	2.cc\)	.
8c/L	.	.
8.f/	.	.
16g/Jk	.	.
8.a-/L	.	.
16a-/k	.	.
8.g/	([4ff\	f
16f/Jk	.	.
=3	=3	=3
4c/	8.ff\L]	.
.	16gg\k	p
[4b-/	8.een\	.
.	16ff\Jk	.
8.b-/L]	8.gg\L)	.
16b-/k	(16gg\k	.
8.a-/	8.ff\	.
16g/Jk	16ee\Jk	.
=4	=4	=4
8.c/L	8.cc\L)	mf
16a-/k	(16ccc\k	p
8.g/	8.bb-\	.
16f/Jk	16aa-\Jk	.
8.c/L	8.bb-\L)	.
16g/k	(16bb-\k	.
8.f/	8.aa-\	.
16en/Jk	16gg\Jk	.
=5	=5	=5
4F/ 4f/	8.aa-\L)	.
.	(16cc\k	p
4r	8.a-\	.
.	16b-\Jk	.
8r	2a-\ [2cc\)	mf
*clefF4	*	*
(8c\L	.	.
8.F\ 8.A-\	.	.
16G\ 16B-\Jk	.	.
=6	=6	=6
4A-\ 4c\	8.cc\L]	.
.	16cc'\k	p
8.G\ 8.B-\L	8.cc\	<
16F\ 16A-\Jk	16ddn\Jk	(
4E-\ 4G\)	8.ee-\L	(
.	16ee-'\k	(
8.E-\ (8.G\L	8.ee-\	(
16Dn\ 16F\Jk	16ff\Jk	[
=7	=7	=7
2C\ 2E-\)	8.gg\L	p
.	16gg\Jk	.
.	8.cc\ 8.ee-\L	.
.	16ddn\ 16ff\Jk	.
8r	2ee-\ [2gg\	.
*clefG2	*	*
(8g/L	.	.
8.c/ 8.e-/	.	.
16dn/ 16f/Jk	.	.
=8	=8	=8
4e-/ 4g/	8.gg\L]	.
.	16ee-\k	.
8.f/L	8.ddn\	.
16a-/Jk	16cc\Jk	.
8.g/L)	4bn\	.
16Bn'/ 16g'/k	.	.
8.B/ 8.g/	4r	.
(16B/ 16g/Jk	.	.
=9	=9	=9
8.c/) 8.a-/L	2r	.
16dn'/ 16bn'/k	.	.
8.d/ 8.b/	.	.
(16d/ 16b/Jk	.	.
8.e-/) 8.cc/L	8.ee-\L	f
16Bn'/ 16g'/k	32ff\LL	>
.	32gg\JJJ	)
8.B/ 8.g/	4ff\	)
(16B/ 16g/Jk	.	)
=10	=10	=10
8.c/) 8.a-/L	2r	)
16dn'/ 16bn'/k	.	)
8.d/ 8.b/	.	)
(16d/ 16b/Jk	.	]
8.e-/) 8.cc/L	8.ee-\L	f
16Bn'/ 16g'/k	32ff\LL	>
.	32gg\JJJ	)
8.B/ 8.g/	4ff\	)
(16B/ 16g/Jk	.	)
=11	=11	=11
8.c/) 8.a-/L	2r	)
16dn'/ 16bn'/k	.	)
8.d/ 8.b/	.	)
(16d/ 16b/Jk	.	)
4e-/) 4cc/	8r	]
.	8gg\L	f
*clefF4	*	*
(4c\	8.gg\	.
.	16gg'\Jk	.
=12	=12	=12
*	*^	*
4Bn\	4aa-/	8.gg\L	.
.	.	16ff\k	.
4c\	4gg/	8.ff\	.
.	.	16ee-\Jk	.
4F\	4ff/	8.ee-\L	.
.	.	16ddn\k	.
4A-\	4ee-/	8.dd\	.
.	.	16cc\Jk	.
*	*v	*v	*
=13	=13	=13
4G\	4bn\	.
4A-\	8.cc\L	.
.	32b\LL	.
.	32cc\JJJ	.
4G\)	8.ddn\L	.
.	16dd'\ 16bbn'\k	p
4r	8.dd\ 8.bb\	.
.	16dd\ 16bb\Jk	.
=14	=14	=14
2r	8.ee-\ 8.ccc\L	.
.	16cc'\ 16aa-'\k	.
.	8.cc\ 8.aa-\	.
.	16cc\ 16aa-\Jk	.
8r	4ddn\	mf
8Bn'\ 8g'\L	.	.
8.B\ 8.g\	[4gg\	.
16B\ (16g\Jk	.	.
=15	=15	=15
8.c\ 8.a-\L)	8.gg\L]	.
16A-'\ 16f'\k	16ee-\Jk	.
8.A-\ 8.f\	4cc\	.
16A-\ (16f\Jk	.	.
4G\ 4g\)	8.b-\L	p
.	16ddn\ 16bbn\k	<
4r	8.dd\ 8.bb\	(
.	16dd\ 16bb\Jk	(
=16	=16	=16
2r	8.ee-\ 8.ccc\L	(
.	16cc'\ 16aa-'\k	(
.	8.cc\ 8.aa-\	(
.	16cc\ (16aa-\Jk	[
8r	4ddn\	mf
8Bn'\ 8g'\L	.	.
8.B\ 8.g\	[4gg\	.
16B\ 16g\Jk	.	.
=17	=17	=17
*^	*	*
2r	8.c\ 8.a-\L	8.gg\L]	.
.	16A-'\ 16f'\k	16ee-\Jk	.
.	8.A-\ 8.f\	4cc\	.
.	16A-\ 16f\Jk	.	.
4g/	2G\	8.b-\L)	.
.	.	16b-'\ 16gg'\k	f
4g/	.	8.b-\ 8.gg\	.
.	.	16b-\ (16gg\Jk	.
=18	=18	=18	=18
2G\	4g/	8.cc\ 8.aa-\L)	.
.	.	16ddn'\ 16bbn'\k	.
.	4f/	8.dd'\ 8.bb'\	.
.	.	16dd\ (16bb\Jk	.
4c\ 4e-\	2r	12ccc\L	.
.	.	12cc\	.
.	.	12gg\J	.
4F\ 4f\	.	12ff\L	.
.	.	12ee-\	.
.	.	12dd\J	.
=19	=19	=19	=19
2G\	4e-/	4cc\	.
.	4dn/	4bn\	.
4A-\ 4c\	2r	12cc/L)	.
.	.	(12c/	mf
.	.	12g/J	.
4F\	.	12f/L	.
.	.	12e-/	.
.	.	12dn/J	.
*v	*v	*	*
=20	=20	=20
4G\	4c/	.
(4GG/	4Bn/	.
4CC/) 4C/	4c/)	.
4r	4r	.
=21:|!|:	=21:|!|:	=21:|!|:
*>B	*>B	*>B
8.c'\	8.r	.
16r	16een\ 16gg\LK	p
4r	8.ee\ (8.gg\	.
.	16ff\ 16aa-\Jk	.
8r	[2gg\ [2bb-\)	.
*clefG2	*	*
(8en/ 8g/L	.	.
8.e/ 8.g/	.	.
16f/ 16a-/Jk	.	.
=22	=22	=22
8.g/ 8.b-/L	2gg\_ 2bb-\_	.
16f/ 16a-/k	.	.
8.en/ 8.g/	.	.
16d-/ 16f/Jk	.	.
8.c/) 8.en/	8.gg\] 8.bb-\L]	.
*clefF4	*	*
16B-\ (16d-\LK	16een\ 16gg\k	.
8.A-\ 8.c\	8.ff\ 8.aa-\	.
16G\ 16B-\Jk	16gg\ 16bb-\Jk	.
=23	=23	=23
2F\ 2A-\)	8.aa-\ 8.ccc\L	.
.	16ff'\ 16aa-'\k	p
.	8.ff\ 8.aa-\	.
.	16gg\ 16bb-\Jk	.
8r	[2aa-\ [2ccc\	.
*clefG2	*	*
8f/ 8a-/L	.	.
(8.f/ 8.a-/	.	.
16g/ 16b-/Jk	.	.
=24	=24	=24
8.a-/ 8.cc/L	2aa-\] 2ccc\]	.
16g/ 16b-/k	.	.
8.f/ 8.a-/	.	.
16e-/ 16g/Jk	.	.
8.d-/ 8.f/L	8r	.
.	8ff\L	.
16c/ 16e-/k	.	.
8.B-/ 8.d-/	8.gg\	.
16A-/ 16c/Jk	16aa-\Jk	.
*clefF4	*	*
=25	=25	=25
*	*^	*
8.G\ 8.B-\L	2.r	8.bb-\L	.
16F\ 16A-\k	.	16aa-\Jk	.
8.E-\ 8.G\	.	[4gg\	.
16F\ 16A-\Jk	.	.	.
4G\) 4B-\	.	8.gg\L]	.
.	.	16ff\k	.
4E-\ (4G\	4bb-/	8.ee-\	.
.	.	16dd-\Jk	.
*	*v	*v	*
=26	=26	=26
2A-\)	8.cc\ 8.aa-\L	.
.	16aa-'\ 16ccc'\k	<
.	8.aa-\ 8.ccc\	(
.	16aa-'\ 16ccc'\Jk	[
(4e-\	8.aa-\ 8.ccc\L	>
.	16gg\ 16bb-\k	)
4en\	8.gg\ 8.bb-\	)
.	16gg'\ 16bb-'\Jk	]
=27	=27	=27
4f\	8.gg\ 8.bb-\L	>
.	16ff\ 16aa-\k	)
4Bn'\	8.ff\ 8.aa-\	)
.	16ff'\ 16aa-'\Jk	]
4c\)	8.ff\ 8.aa-\L	>
.	16ee-\ 16gg\k	)
(4C/	8.ee-\ 8.gg\	)
.	16ee-'\ 16gg'\Jk	]
=28	=28	=28
4D-\	8.ee-\ 8.gg\L	>
.	16dd-\ 16ff\k	)
4G\	8.dd-\ 8.ff\	)
.	16dd-'\ 16ff'\Jk	]
4A-\	8.dd-\ 8.ff\L	>
.	16cc\ 16ee-\k	)
4An\	8.cc\ 8.ee-\	)
.	16cc'\ 16ee-'\Jk	]
=29	=29	=29
*	*^	*
4B-\	2.r	8.cc\ 8.ee-\L	>
.	.	16b-\ 16dd-\k	)
4c\	.	8.b-\ 8.dd-\	)
.	.	16a-\ 16cc\Jk	]
4d-\)	.	8.a-/ 8.cc/L	>
.	.	16g/ 16b-/Jk	)
(4D-/	4b-/	8.g\L	)
.	.	16f\Jk	)
*	*v	*v	*
=30	=30	=30
4C/)	8.en\ 8.cc\L	]
.	16g'\ 16een'\k	p
4r	8.g\ 8.ee\	<
.	16g\ 16ee\Jk	(
2r	8.a-\ 8.ff\L	(
.	16ddn'\ 16bbn'\k	(
.	8.dd\ 8.bb\	(
.	16dd\ 16bb\Jk	[
=31	=31	=31
8r	4een\ 4ccc\	f
*clefG2	*	*
8en/ 8cc/L	.	.
8.e/ 8.cc/	[4gg\	.
(16e/ 16cc/Jk	.	.
8.f/) 8.dd-/L	8.gg\L]	.
16d-'/ 16b-'/k	16aa-\Jk	.
8.d-/ 8.b-/	4ff\	.
(16d-/ 16b-/Jk	.	.
=32	=32	=32
4c/) 4cc/	8een\	.
.	8g\ 8een\L	p
4r	8.g\ 8.ee\	.
.	16g\ 16ee\Jk	.
2r	8.a-\ 8.ff\L	.
.	16ddn'\ 16bbn'\k	.
.	8.dd\ 8.bb\	.
.	16dd\ 16bb\Jk	.
=33	=33	=33
8r	4een\ 4ccc\	f
8en/ 8cc/L	.	.
8.e/ 8.cc/	[4gg\	.
(16e/ 16cc/Jk	.	.
8.f/) 8.dd-/L	8.gg\L]	.
16d-'/ 16b-'/k	16aa-\Jk	.
8.d-/ 8.b-/	4ff\	.
(16d-/ 16b-/Jk	.	.
=34	=34	=34
2c/) 2cc/	8.een\L	.
.	16ccc'\k	.
.	8.ccc\	.
.	16ccc\Jk	.
8r	8.ddd-\L	.
*clefF4	*	*
8B-\L	.	.
.	16ee'\ 16gg'\k	.
8.B-\	8.ee\ 8.gg\	.
(16B-\Jk	16ee\ 16gg\Jk	.
=35	=35	=35
*^	*	*
2r	4A-\ 4f\	12aa-\L	.
.	.	12bb-\	.
.	.	12ccc\J	.
.	4B-\ 4g\	12bb-\L	.
.	.	12aa-\	.
.	.	12gg\J	.
4a-/	2c\	4ff\	.
4g/	.	4een\	.
*v	*v	*	*
=36	=36	=36
4F\) 4f\	8.ff\L	.
.	16g'\ 16een'\k	p
4r	8.g\ 8.ee\	.
.	16g\ 16ee\Jk	.
2r	8.a-\ 8.ff\L	.
.	16ddn'\ 16bbn'\k	.
.	8.dd\ 8.bb\	.
.	16dd\ 16bb\Jk	.
=37	=37	=37
8r	4een\ 4ccc\	mf
*clefG2	*	*
8en/ 8cc/L	.	.
8.e/ 8.cc/	[4gg\	.
(16e/ 16cc/Jk	.	.
8.f/) 8.dd-/L	8.gg\L]	.
16d-'/ 16b-'/k	16aa-\Jk	.
8.d-/ 8.b-/	4ff\	.
(16d-/ 16b-/Jk	.	.
=38	=38	=38
4c/) 4cc/	8een\	.
.	8g\ 8een\L	p
4r	8.g\ 8.ee\	.
.	16g\ 16ee\Jk	.
2r	8.a-\ 8.ff\L	.
.	16ddn'\ 16bbn'\k	.
.	8.dd\ 8.bb\	.
.	16dd\ 16bb\Jk	.
=39	=39	=39
8r	4een\ 4ccc\	f
8en/ 8cc/L	.	.
8.e/ 8.cc/	[4gg\	.
(16e/ 16cc/Jk	.	.
8.f/) 8.dd-/L	8.gg\L]	.
16d-'/ 16b-'/k	16aa-\Jk	.
8.d-/ 8.b-/	4ff\	.
(16d-/ 16b-/Jk	.	.
=40	=40	=40
2c/) 2cc/	8.een\L	.
.	16ccc'\k	.
.	8.ccc\	.
.	16ccc\Jk	.
8r	8.ddd-\L	.
*clefF4	*	*
8B-\L	.	.
.	16ee'\ 16gg'\k	.
8.B-\	8.ee\ 8.gg\	.
16B-\Jk	16ee\ 16gg\Jk	.
=41	=41	=41
*^	*	*
2r	4A-\ (4f\	12aa-\L	.
.	.	12bb-\	.
.	.	12ccc\J	.
.	4B-\ 4g\	(12bb-\L	.
.	.	12aa-\	.
.	.	12gg\J	.
4a-/	2c\	4ff\	.
4g/)	.	4een\)	.
*v	*v	*	*
=42	=42	=42
*	*^	*
8r	2r	[2b-\ [2dd-\	f
8B-\ 8en\ 8g\L	.	.	.
8.B-\ 8.e\ 8.g\	.	.	.
16B-'\ 16e'\ 16g'\Jk	.	.	.
8.B-\ 8.e\ 8.g\L	8.r	8.b-\] 8.dd-\L]	.
16B-'\ 16e'\ 16g'\k	(16dd-/	16dd-\k	.
8.B-\ 8.e\ 8.g\	4ee-/	8.cc\	.
16B-\ 16e\ 16g\Jk	.	16b-\Jk	.
=43	=43	=43	=43
*^	*	*	*
2f/	4A-\	2ff/	12cc\L	.
.	.	.	12b-\	.
.	.	.	12cc\J	.
.	4B-\	.	12dd-\L	.
.	.	.	12cc\	.
.	.	.	12b-\J	.
2r	4c\	4ff/	12a-\L	.
.	.	.	12g\	.
.	.	.	12a-\J	.
.	4C/	4een/	12b-\L	.
.	.	.	12a-\	.
.	.	.	12g\J	.
*v	*v	*	*	*
*	*v	*v	*
=44	=44	=44
4FF/ 4F/	4f/) 4ff/	.
4r	4r	.
2r	2r	.
==:|!	==:|!	==:|!
*-	*-	*-
!!!ENC: Craig Stuart Sapp
!!!END: 2005/06/25/
